public/img/svg/cadastro.svg

<svg id="outline" height="512" viewBox="0 0 512 512" width="512" xmlns="http://www.w3.org/2000/svg"><path d="m448 16h-384a24.0275 24.0275 0 0 0 -24 24v432a24.0275 24.0275 0 0 0 24 24h384a24.0275 24.0275 0 0 0 24-24v-432a24.0275 24.0275 0 0 0 -24-24zm-384 16h384a8.00917 8.00917 0 0 1 8 8v24h-400v-24a8.00917 8.00917 0 0 1 8-8zm384 448h-384a8.00917 8.00917 0 0 1 -8-8v-392h400v392a8.00917 8.00917 0 0 1 -8 8z"/><circle cx="80" cy="48" r="8"/><circle cx="104" cy="48" r="8"/><circle cx="128" cy="48" r="8"/><path d="m256 224a64 64 0 1 0 -64-64 64.07239 64.07239 0 0 0 64 64zm-24-22.45752v-8.41648a23.95337 23.95337 0 0 1 10.687-19.96973l.9184-.6123a23.95395 23.95395 0 0 0 24.78894.00024l.91814.61206a23.95261 23.95261 0 0 1 10.68752 19.96973v8.4165a47.82793 47.82793 0 0 1 -48 0zm32-49.54248a8 8 0 0 1 -16 0v-8a8 8 0 0 1 16 0zm-8-40a47.9681 47.9681 0 0 1 39.53937 75.17285 39.88734 39.88734 0 0 0 -16.95764-27.04858 23.88631 23.88631 0 0 0 1.41827-8.12427v-8a24 24 0 0 0 -48 0v8a23.88522 23.88522 0 0 0 1.41821 8.124 39.88754 39.88754 0 0 0 -16.95758 27.04883 47.9681 47.9681 0 0 1 39.53937-75.17283z"/><path d="m200 240h24v16h-24z"/><path d="m240 240h72v16h-72z"/><path d="m160 360h16v16h-16z"/><path d="m192 360h48v16h-48z"/><path d="m160 328h16v16h-16z"/><path d="m192 328h32v16h-32z"/><path d="m200 272h48v16h-48z"/><path d="m264 272h48v16h-48z"/><path d="m160 440h16v16h-16z"/><path d="m192 440h48v16h-48z"/><path d="m160 408h16v16h-16z"/><path d="m192 408h32v16h-32z"/><path d="m352 360h16v16h-16z"/><path d="m384 360h48v16h-48z"/><path d="m352 328h16v16h-16z"/><path d="m384 328h32v16h-32z"/><path d="m352 440h16v16h-16z"/><path d="m384 440h48v16h-48z"/><path d="m352 408h16v16h-16z"/><path d="m384 408h32v16h-32z"/><path d="m132.686 320h-44.686a8.00008 8.00008 0 0 0 -8 8v48a8.00008 8.00008 0 0 0 8 8h48a8.00008 8.00008 0 0 0 8-8v-44.686l13.65674-13.65673-11.31348-11.31446zm-4.686 48h-32v-32h20.686l-10.34278 10.34277 11.31348 11.31446 10.3433-10.34323z"/><path d="m146.34326 386.34277-13.65726 13.65723h-44.686a8.00008 8.00008 0 0 0 -8 8v48a8.00008 8.00008 0 0 0 8 8h48a8.00008 8.00008 0 0 0 8-8v-44.686l13.65674-13.65673zm-18.34326 61.65723h-32v-32h20.686l-10.34278 10.34277 11.31348 11.31446 10.3433-10.34323z"/><path d="m324.686 320h-44.686a8.00008 8.00008 0 0 0 -8 8v48a8.00008 8.00008 0 0 0 8 8h48a8.00008 8.00008 0 0 0 8-8v-44.686l13.65674-13.65673-11.31348-11.31446zm-4.686 48h-32v-32h20.686l-10.34278 10.34277 11.31348 11.31446 10.3433-10.34323z"/><path d="m338.34326 386.34277-13.65726 13.65723h-44.686a8.00008 8.00008 0 0 0 -8 8v48a8.00008 8.00008 0 0 0 8 8h48a8.00008 8.00008 0 0 0 8-8v-44.686l13.65674-13.65673zm-18.34326 61.65723h-32v-32h20.686l-10.34278 10.34277 11.31348 11.31446 10.3433-10.34323z"/></svg>

<svg width="512" height="512" viewBox="0 0 512 512" fill="none" xmlns="http://www.w3.org/2000/svg">
<g filter="url(#filter0_d)">
<path d="M448 16H64C57.637 16.0073 51.5368 18.5382 47.0375 23.0375C42.5382 27.5368 40.0073 33.637 40 40V472C40.0073 478.363 42.5382 484.463 47.0375 488.963C51.5368 493.462 57.637 495.993 64 496H448C454.363 495.993 460.463 493.462 464.963 488.963C469.462 484.463 471.993 478.363 472 472V40C471.993 33.637 469.462 27.5368 464.963 23.0375C460.463 18.5382 454.363 16.0073 448 16ZM64 32H448C450.121 32.0024 452.154 32.8461 453.654 34.3458C455.154 35.8456 455.998 37.879 456 40V64H56V40C56.0024 37.879 56.8461 35.8456 58.3458 34.3458C59.8456 32.8461 61.879 32.0024 64 32ZM448 480H64C61.879 479.998 59.8456 479.154 58.3458 477.654C56.8461 476.154 56.0024 474.121 56 472V80H456V472C455.998 474.121 455.154 476.154 453.654 477.654C452.154 479.154 450.121 479.998 448 480Z" fill="#FD951F"/>
<path d="M80 56C84.4183 56 88 52.4183 88 48C88 43.5817 84.4183 40 80 40C75.5817 40 72 43.5817 72 48C72 52.4183 75.5817 56 80 56Z" fill="#FD951F"/>
<path d="M104 56C108.418 56 112 52.4183 112 48C112 43.5817 108.418 40 104 40C99.5817 40 96 43.5817 96 48C96 52.4183 99.5817 56 104 56Z" fill="#FD951F"/>
<path d="M128 56C132.418 56 136 52.4183 136 48C136 43.5817 132.418 40 128 40C123.582 40 120 43.5817 120 48C120 52.4183 123.582 56 128 56Z" fill="#FD951F"/>
<path d="M256 224C268.658 224 281.032 220.246 291.556 213.214C302.081 206.182 310.284 196.186 315.128 184.492C319.972 172.797 321.24 159.929 318.77 147.514C316.301 135.099 310.205 123.696 301.255 114.745C292.304 105.795 280.901 99.6992 268.486 97.2298C256.071 94.7603 243.203 96.0277 231.508 100.872C219.814 105.716 209.818 113.919 202.786 124.444C195.754 134.968 192 147.342 192 160C192.019 176.968 198.768 193.236 210.766 205.234C222.765 217.232 239.032 223.981 256 224ZM232 201.543V193.126C231.996 189.174 232.969 185.283 234.834 181.798C236.699 178.314 239.397 175.345 242.687 173.156L243.605 172.544C247.344 174.805 251.63 176 256 176C260.369 176 264.655 174.805 268.394 172.544L269.312 173.156C272.603 175.345 275.301 178.314 277.166 181.798C279.031 185.282 280.004 189.174 280 193.126V201.543C272.709 205.772 264.429 208 256 208C247.571 208 239.291 205.772 232 201.543V201.543ZM264 152C264 154.122 263.157 156.157 261.657 157.657C260.157 159.157 258.122 160 256 160C253.878 160 251.843 159.157 250.343 157.657C248.843 156.157 248 154.122 248 152V144C248 141.878 248.843 139.843 250.343 138.343C251.843 136.843 253.878 136 256 136C258.122 136 260.157 136.843 261.657 138.343C263.157 139.843 264 141.878 264 144V152ZM256 112C264.746 111.994 273.327 114.38 280.816 118.899C288.304 123.417 294.414 129.898 298.486 137.638C302.557 145.379 304.435 154.085 303.915 162.816C303.396 171.547 300.5 179.969 295.539 187.173C294.728 181.74 292.803 176.533 289.885 171.878C286.967 167.224 283.119 163.222 278.582 160.124C279.522 157.519 280.002 154.77 280 152V144C280 137.635 277.471 131.53 272.971 127.029C268.47 122.529 262.365 120 256 120C249.635 120 243.53 122.529 239.029 127.029C234.529 131.53 232 137.635 232 144V152C231.998 154.77 232.478 157.519 233.418 160.124C228.881 163.222 225.033 167.223 222.115 171.878C219.197 176.532 217.272 181.74 216.461 187.173C211.5 179.969 208.604 171.547 208.085 162.816C207.565 154.085 209.443 145.379 213.514 137.638C217.586 129.898 223.696 123.417 231.184 118.899C238.673 114.38 247.254 111.994 256 112Z" fill="#FD951F"/>
<path d="M200 240H224V256H200V240Z" fill="#FD951F"/>
<path d="M240 240H312V256H240V240Z" fill="#FD951F"/>
<path d="M160 360H176V376H160V360Z" fill="#FD951F"/>
<path d="M192 360H240V376H192V360Z" fill="#FD951F"/>
<path d="M160 328H176V344H160V328Z" fill="#FD951F"/>
<path d="M192 328H224V344H192V328Z" fill="#FD951F"/>
<path d="M200 272H248V288H200V272Z" fill="#FD951F"/>
<path d="M264 272H312V288H264V272Z" fill="#FD951F"/>
<path d="M160 440H176V456H160V440Z" fill="#FD951F"/>
<path d="M192 440H240V456H192V440Z" fill="#FD951F"/>
<path d="M160 408H176V424H160V408Z" fill="#FD951F"/>
<path d="M192 408H224V424H192V408Z" fill="#FD951F"/>
<path d="M352 360H368V376H352V360Z" fill="#FD951F"/>
<path d="M384 360H432V376H384V360Z" fill="#FD951F"/>
<path d="M352 328H368V344H352V328Z" fill="#FD951F"/>
<path d="M384 328H416V344H384V328Z" fill="#FD951F"/>
<path d="M352 440H368V456H352V440Z" fill="#FD951F"/>
<path d="M384 440H432V456H384V440Z" fill="#FD951F"/>
<path d="M352 408H368V424H352V408Z" fill="#FD951F"/>
<path d="M384 408H416V424H384V408Z" fill="#FD951F"/>
<path d="M132.686 320H88C85.8783 320 83.8435 320.843 82.3432 322.343C80.8429 323.843 80 325.878 80 328V376C80 378.122 80.8429 380.157 82.3432 381.657C83.8435 383.157 85.8783 384 88 384H136C138.122 384 140.157 383.157 141.657 381.657C143.157 380.157 144 378.122 144 376V331.314L157.657 317.657L146.343 306.343L132.686 320ZM128 368H96V336H116.686L106.343 346.343L117.657 357.657L128 347.314V368Z" fill="#FD951F"/>
<path d="M146.343 386.343L132.686 400H88C85.8783 400 83.8435 400.843 82.3432 402.343C80.8429 403.843 80 405.878 80 408V456C80 458.122 80.8429 460.157 82.3432 461.657C83.8435 463.157 85.8783 464 88 464H136C138.122 464 140.157 463.157 141.657 461.657C143.157 460.157 144 458.122 144 456V411.314L157.657 397.657L146.343 386.343ZM128 448H96V416H116.686L106.343 426.343L117.657 437.657L128 427.314V448Z" fill="#FD951F"/>
<path d="M324.686 320H280C277.878 320 275.843 320.843 274.343 322.343C272.843 323.843 272 325.878 272 328V376C272 378.122 272.843 380.157 274.343 381.657C275.843 383.157 277.878 384 280 384H328C330.122 384 332.157 383.157 333.657 381.657C335.157 380.157 336 378.122 336 376V331.314L349.657 317.657L338.343 306.343L324.686 320ZM320 368H288V336H308.686L298.343 346.343L309.657 357.657L320 347.314V368Z" fill="#FD951F"/>
<path d="M338.343 386.343L324.686 400H280C277.878 400 275.843 400.843 274.343 402.343C272.843 403.843 272 405.878 272 408V456C272 458.122 272.843 460.157 274.343 461.657C275.843 463.157 277.878 464 280 464H328C330.122 464 332.157 463.157 333.657 461.657C335.157 460.157 336 458.122 336 456V411.314L349.657 397.657L338.343 386.343ZM320 448H288V416H308.686L298.343 426.343L309.657 437.657L320 427.314V448Z" fill="#FD951F"/>
</g>
<defs>
<filter id="filter0_d" x="-4" y="0" width="520" height="520" filterUnits="userSpaceOnUse" color-interpolation-filters="sRGB">
<feFlood flood-opacity="0" result="BackgroundImageFix"/>
<feColorMatrix in="SourceAlpha" type="matrix" values="0 0 0 0 0 0 0 0 0 0 0 0 0 0 0 0 0 0 127 0"/>
<feOffset dy="4"/>
<feGaussianBlur stdDeviation="2"/>
<feColorMatrix type="matrix" values="0 0 0 0 0 0 0 0 0 0 0 0 0 0 0 0 0 0 0.25 0"/>
<feBlend mode="normal" in2="BackgroundImageFix" result="effect1_dropShadow"/>
<feBlend mode="normal" in="SourceGraphic" in2="effect1_dropShadow" result="shape"/>
</filter>
</defs>
</svg>
